X:1
T:Old Man Dillon
S:Scott DeLancey  irtrad-l 2000-06-01
M:6/8
L:1/8
R:jig
K:Ador
| EAA ABd | edB c2A | BGG DGG | BdB BAG \
| EAA ABd | edB g2g | edc Bcd | eAA A3 :|
| gef g2a | gef gdc | BGG DGG | BdB BAG \
| gef g2a | gef gfg | edc Bcd | eAA A3 |
| gef g2a | gef gdc | BGG DGG | BdB BAG \
| EAA ABd | edB g3 | edc Bcd | eAA A3 |]
